assets/images/counter/icon-03.svg

<svg width="46" height="46" viewBox="0 0 46 46" fill="none" xmlns="http://www.w3.org/2000/svg">
<g clip-path="url(#clip0_270_41)">
<path d="M21.1216 42.1667H0.958224C0.663057 42.1667 0.38514 42.0306 0.203057 41.7987C0.0209734 41.5648 -0.0441933 41.2639 0.0267234 40.9764L1.06172 36.8172C1.58306 34.7492 3.09531 33.12 5.10397 32.4588L12.8051 29.8923C13.9475 29.4151 14.6605 27.6939 14.7333 25.1563C13.8516 24.3551 11.9599 22.4001 11.9599 20.3953C11.9599 19.6918 11.7241 19.5481 11.7222 19.5462C11.4309 19.4676 11.2776 19.2874 11.1645 19.0057C11.0686 18.7642 10.2349 16.6252 10.2349 15.18C10.2349 15.1033 10.2445 15.0267 10.2636 14.9519C10.3844 14.4555 10.6757 13.9572 11.1146 13.6543C11.1261 13.4243 11.1396 13.1694 11.1549 12.8858C11.2028 11.9389 11.2699 10.6758 11.2699 9.10417C11.2699 5.5085 15.6667 0 21.0832 0C25.9841 0 28.357 2.6105 28.7499 4.29717C29.9478 4.96033 30.9924 6.05475 30.9924 9.10417V13.6601C31.4677 13.9878 31.761 14.513 31.8836 14.8753C31.9162 14.973 31.9316 15.0765 31.9316 15.18C31.9316 15.709 31.5022 16.1767 30.9732 16.1767C30.4921 16.1767 30.0954 15.8547 30.0264 15.4004C29.99 15.3333 29.944 15.2663 29.9133 15.2433C29.3862 15.2433 29.0738 14.8465 29.0738 14.3175V9.10417C29.0738 6.60292 28.2707 6.1985 27.7916 5.95892C27.5021 5.81133 26.8907 5.50467 26.8907 4.7725C26.8562 4.19558 25.2424 1.91667 21.0832 1.91667C16.5216 1.91667 13.1866 6.64317 13.1866 9.10417C13.1866 10.718 13.1195 12.0137 13.0658 12.9854C13.039 13.5393 13.0141 13.9859 13.0141 14.3175C13.0141 14.8139 12.6365 15.2222 12.1535 15.272C12.1841 16.0578 12.5771 17.2903 12.8281 17.9783C13.3418 18.3425 13.8766 19.0862 13.8766 20.3933C13.8766 21.4743 15.1377 23.0134 16.3107 23.9871C16.5292 24.1692 16.6557 24.4394 16.6557 24.725C16.6557 28.3628 15.5268 30.8353 13.476 31.6863L5.70772 34.2796C4.32006 34.7377 3.27931 35.8608 2.92089 37.2849L2.18489 40.25H21.1216C21.6506 40.25 22.0799 40.6793 22.0799 41.2083C22.0799 41.7373 21.6506 42.1667 21.1216 42.1667Z" fill="#FF3600"/>
<path d="M34.5 46C34.3735 46 34.247 45.975 34.1282 45.9233C33.672 45.7335 23 41.1201 23 31.6939V23.6842C23 23.274 23.2626 22.908 23.6517 22.7757L34.1933 19.2165C34.3927 19.1494 34.6092 19.1494 34.8067 19.2165L45.3483 22.7757C45.7374 22.906 46 23.2721 46 23.6842V31.6939C46 41.1201 35.328 45.7335 34.8718 45.9252C34.753 45.975 34.6265 46 34.5 46ZM24.9167 24.3723V31.6939C24.9167 38.9485 32.6888 43.1135 34.5 43.9875C36.3093 43.1115 44.0833 38.9313 44.0833 31.6939V24.3723L34.5 21.137L24.9167 24.3723Z" fill="#FF3600"/>
<path d="M33.5417 36.4166C33.5245 36.4166 33.5053 36.4166 33.49 36.4147C33.2159 36.3994 32.9648 36.269 32.7942 36.0563L28.9609 31.2646C28.6312 30.8506 28.6964 30.2488 29.1104 29.9172C29.5263 29.5875 30.1281 29.6565 30.4578 30.0667L33.6203 34.0227L39.5716 28.0715C39.9453 27.6977 40.5529 27.6977 40.9266 28.0715C41.3004 28.4452 41.3004 29.0528 40.9266 29.4265L34.2183 36.1349C34.0401 36.317 33.7947 36.4166 33.5417 36.4166Z" fill="#FF3600"/>
</g>
<defs>
<clipPath id="clip0_270_41">
<rect width="46" height="46" fill="white"/>
</clipPath>
</defs>
</svg>

<svg version="1.2" xmlns="http://www.w3.org/2000/svg" viewBox="0 0 46 46" width="46" height="46"><defs><clipPath clipPathUnits="userSpaceOnUse" id="cp1"><path d="m0 0h46v46h-46z"/></clipPath></defs><style>.a{fill:#ff3600}</style><g clip-path="url(#cp1)"><filter id="f0"><feFlood flood-color="#c9b199" flood-opacity="1" /><feBlend mode="normal" in2="SourceGraphic"/><feComposite in2="SourceAlpha" operator="in" /></filter><g filter="url(#f0)"><path class="a" d="m21.1 42.2h-20.1c-0.3 0-0.6-0.2-0.8-0.4-0.2-0.2-0.2-0.5-0.2-0.8l1.1-4.2c0.5-2.1 2-3.7 4-4.3l7.7-2.6c1.1-0.5 1.9-2.2 1.9-4.7-0.8-0.8-2.7-2.8-2.7-4.8 0-0.7-0.3-0.9-0.3-0.9-0.3 0-0.4-0.2-0.5-0.5-0.1-0.2-1-2.4-1-3.8q0-0.1 0.1-0.2c0.1-0.5 0.4-1 0.8-1.3q0-0.4 0.1-0.8c0-1 0.1-2.2 0.1-3.8 0-3.6 4.4-9.1 9.8-9.1 4.9 0 7.3 2.6 7.6 4.3 1.2 0.7 2.3 1.8 2.3 4.8v4.6c0.5 0.3 0.8 0.8 0.9 1.2q0 0.1 0 0.3c0 0.5-0.4 1-0.9 1-0.5 0-0.9-0.3-1-0.8q0-0.1-0.1-0.2c-0.5 0-0.8-0.4-0.8-0.9v-5.2c0-2.5-0.8-2.9-1.3-3.1-0.3-0.2-0.9-0.5-0.9-1.2 0-0.6-1.7-2.9-5.8-2.9-4.6 0-7.9 4.7-7.9 7.2 0 1.6-0.1 2.9-0.1 3.9q-0.1 0.8-0.1 1.3c0 0.5-0.4 0.9-0.8 1 0 0.8 0.4 2 0.6 2.7 0.5 0.3 1.1 1.1 1.1 2.4 0 1.1 1.2 2.6 2.4 3.6 0.2 0.2 0.4 0.4 0.4 0.7 0 3.7-1.2 6.1-3.2 7l-7.8 2.6c-1.4 0.4-2.4 1.6-2.8 3l-0.7 2.9h18.9c0.6 0 1 0.5 1 1 0 0.5-0.4 1-1 1z"/><path class="a" d="m34.5 46q-0.2 0-0.4-0.1c-0.4-0.2-11.1-4.8-11.1-14.2v-8c0-0.4 0.3-0.8 0.7-0.9l10.5-3.6q0.3-0.1 0.6 0l10.5 3.6c0.4 0.1 0.7 0.5 0.7 0.9v8c0 9.4-10.7 14-11.1 14.2q-0.2 0.1-0.4 0.1zm-9.6-21.6v7.3c0 7.2 7.8 11.4 9.6 12.3 1.8-0.9 9.6-5.1 9.6-12.3v-7.3l-9.6-3.3z"/><path class="a" d="m33.5 36.4q0 0 0 0c-0.3 0-0.5-0.1-0.7-0.3l-3.8-4.8c-0.4-0.4-0.3-1.1 0.1-1.4 0.4-0.3 1-0.2 1.4 0.2l3.1 3.9 6-5.9c0.3-0.4 1-0.4 1.3 0 0.4 0.3 0.4 1 0 1.3l-6.7 6.7q-0.3 0.3-0.7 0.3z"/></g></g></svg>
